style/branch_more.svg

<svg height="20" viewBox="0 0 20 20" width="20" xmlns="http://www.w3.org/2000/svg"><g transform="translate(0 11)"><path d="m15 6.5a4.5 4.5 0 0 0 4.5 4.5 4.5 4.5 0 0 0  .5-.03125v-1.0078125a3.5 3.5 0 0 1 -.251953.03125 3.5 3.5 0 0 1 -.248047.0078125 3.5 3.5 0 0 1 -.349609-.0175781 3.5 3.5 0 0 1 -.345703-.0527344 3.5 3.5 0 0 1 -.339844-.0859375 3.5 3.5 0 0 1 -.328125-.1191406 3.5 3.5 0 0 1 -.314453-.1523438 3.5 3.5 0 0 1 -.298828-.1835937 3.5 3.5 0 0 1 -.277344-.2109375 3.5 3.5 0 0 1 -.257813-.2402344 3.5 3.5 0 0 1 -.230469-.2617188 3.5 3.5 0 0 1 -.203124-.2851562 3.5 3.5 0 0 1 -.173829-.3027344 3.5 3.5 0 0 1 -.142578-.3203125 3.5 3.5 0 0 1 -.111328-.3320312 3.5 3.5 0 0 1 -.076172-.3398438 3.5 3.5 0 0 1 -.042969-.3476562 3.5 3.5 0 0 1 -.007812-.2480469h-1z" fill="#484848" transform="translate(0 -11)"/><path d="m15.5-11v20" fill="none" stroke="#484848"/></g></svg>

<?xml version="1.0" encoding="UTF-8" standalone="no"?>
<!-- Created with Inkscape (http://www.inkscape.org/) -->

<svg
   xmlns:dc="http://purl.org/dc/elements/1.1/"
   xmlns:cc="http://creativecommons.org/ns#"
   xmlns:rdf="http://www.w3.org/1999/02/22-rdf-syntax-ns#"
   xmlns:svg="http://www.w3.org/2000/svg"
   xmlns="http://www.w3.org/2000/svg"
   xmlns:sodipodi="http://sodipodi.sourceforge.net/DTD/sodipodi-0.dtd"
   xmlns:inkscape="http://www.inkscape.org/namespaces/inkscape"
   id="svg2"
   version="1.1"
   inkscape:version="0.91 r"
   width="20"
   height="20"
   viewBox="0 0 20 20"
   sodipodi:docname="branch_more.svg">
  <metadata
     id="metadata8">
    <rdf:RDF>
      <cc:Work
         rdf:about="">
        <dc:format>image/svg+xml</dc:format>
        <dc:type
           rdf:resource="http://purl.org/dc/dcmitype/StillImage" />
        <dc:title></dc:title>
      </cc:Work>
    </rdf:RDF>
  </metadata>
  <defs
     id="defs6">
    <marker
       inkscape:stockid="Arrow1Mstart"
       orient="auto"
       refY="0"
       refX="0"
       id="Arrow1Mstart"
       style="overflow:visible"
       inkscape:isstock="true">
      <path
         id="path4194"
         d="M 0,0 5,-5 -12.5,0 5,5 0,0 Z"
         style="fill-rule:evenodd;stroke:#000000;stroke-width:1pt"
         transform="matrix(0.4,0,0,0.4,4,0)"
         inkscape:connector-curvature="0" />
    </marker>
    <marker
       inkscape:stockid="StopL"
       orient="auto"
       refY="0"
       refX="0"
       id="StopL"
       style="overflow:visible"
       inkscape:isstock="true">
      <path
         id="path4357"
         d="M 0,5.65 0,-5.65"
         style="fill:none;fill-opacity:0.75;fill-rule:evenodd;stroke:#000000;stroke-width:1pt"
         transform="scale(0.8,0.8)"
         inkscape:connector-curvature="0" />
    </marker>
  </defs>
  <sodipodi:namedview
     pagecolor="#ffffff"
     bordercolor="#666666"
     borderopacity="1"
     objecttolerance="10"
     gridtolerance="10"
     guidetolerance="10"
     inkscape:pageopacity="0"
     inkscape:pageshadow="2"
     inkscape:window-width="1680"
     inkscape:window-height="1026"
     id="namedview4"
     showgrid="true"
     showguides="true"
     inkscape:guide-bbox="true"
     inkscape:snap-object-midpoints="true"
     inkscape:snap-bbox="true"
     inkscape:snap-bbox-edge-midpoints="true"
     inkscape:zoom="26.222222"
     inkscape:cx="13.81566"
     inkscape:cy="10.245466"
     inkscape:window-x="0"
     inkscape:window-y="24"
     inkscape:window-maximized="1"
     inkscape:current-layer="layer1"
     showborder="true"
     inkscape:bbox-nodes="true">
    <sodipodi:guide
       position="0,4.5"
       orientation="0,1"
       id="guide4138" />
    <inkscape:grid
       type="xygrid"
       id="grid4182" />
  </sodipodi:namedview>
  <g
     inkscape:groupmode="layer"
     id="layer1"
     inkscape:label="Layer 1"
     style="display:inline"
     transform="translate(0,11)">
    <path
       style="color:#000000;display:inline;overflow:visible;visibility:visible;opacity:1;fill:#484848;fill-opacity:1;fill-rule:nonzero;stroke:none;stroke-width:1;stroke-linecap:butt;stroke-linejoin:miter;stroke-miterlimit:4;stroke-dasharray:none;stroke-opacity:1;marker:none;enable-background:accumulate"
       d="M 15 6.5 A 4.5 4.5 0 0 0 19.5 11 A 4.5 4.5 0 0 0 20 10.96875 L 20 9.9609375 A 3.5 3.5 0 0 1 19.748047 9.9921875 A 3.5 3.5 0 0 1 19.5 10 A 3.5 3.5 0 0 1 19.150391 9.9824219 A 3.5 3.5 0 0 1 18.804688 9.9296875 A 3.5 3.5 0 0 1 18.464844 9.84375 A 3.5 3.5 0 0 1 18.136719 9.7246094 A 3.5 3.5 0 0 1 17.822266 9.5722656 A 3.5 3.5 0 0 1 17.523438 9.3886719 A 3.5 3.5 0 0 1 17.246094 9.1777344 A 3.5 3.5 0 0 1 16.988281 8.9375 A 3.5 3.5 0 0 1 16.757812 8.6757812 A 3.5 3.5 0 0 1 16.554688 8.390625 A 3.5 3.5 0 0 1 16.380859 8.0878906 A 3.5 3.5 0 0 1 16.238281 7.7675781 A 3.5 3.5 0 0 1 16.126953 7.4355469 A 3.5 3.5 0 0 1 16.050781 7.0957031 A 3.5 3.5 0 0 1 16.007812 6.7480469 A 3.5 3.5 0 0 1 16 6.5 L 15 6.5 z "
       id="path5251"
       transform="translate(0,-11)" />
    <path
       style="fill:none;fill-rule:evenodd;stroke:#484848;stroke-width:1px;stroke-linecap:butt;stroke-linejoin:miter;stroke-opacity:1;fill-opacity:1"
       d="m 15.5,-11 0,20"
       id="path5241"
       inkscape:connector-curvature="0" />
  </g>
</svg>
